works/just/images/common/svg/logo_white.svg

<?xml version="1.0" encoding="UTF-8" standalone="no"?>
<svg
   width="69"
   height="72"
   viewBox="0 0 69 72"
   fill="none"
   version="1.1"
   id="svg6"
   sodipodi:docname="logo_white.svg"
   inkscape:version="1.1 (c68e22c387, 2021-05-23)"
   xmlns:inkscape="http://www.inkscape.org/namespaces/inkscape"
   xmlns:sodipodi="http://sodipodi.sourceforge.net/DTD/sodipodi-0.dtd"
   xmlns="http://www.w3.org/2000/svg"
   xmlns:svg="http://www.w3.org/2000/svg">
  <defs
     id="defs10" />
  <sodipodi:namedview
     id="namedview8"
     pagecolor="#ffffff"
     bordercolor="#666666"
     borderopacity="1.0"
     inkscape:pageshadow="2"
     inkscape:pageopacity="0.0"
     inkscape:pagecheckerboard="0"
     showgrid="false"
     inkscape:zoom="12.125"
     inkscape:cx="34.474227"
     inkscape:cy="36"
     inkscape:window-width="2560"
     inkscape:window-height="1411"
     inkscape:window-x="2391"
     inkscape:window-y="-9"
     inkscape:window-maximized="1"
     inkscape:current-layer="svg6" />
  <g
     id="g829"
     transform="translate(-0.2674,1.5e-4)">
    <path
       fill-rule="evenodd"
       clip-rule="evenodd"
       d="M 13.437,40.6356 H 2.56863 V 52.7084 H 11.4762 V 54.277 H 2.56863 V 70.9717 H 1 V 39.095 H 2.56863 13.409 v 1.5406 z M 34.3333,39.095 H 35.93 V 70.9717 H 34.3613 V 43.5207 L 26.4902,65.1734 18.563,43.5207 v 27.451 H 16.9944 V 39.095 h 1.5966 l 7.8712,21.5126 z m 7.9272,30.3361 h 10.084 v 1.5686 H 42.2605 40.6919 V 39.095 h 1.5686 z M 66.5742,39.095 h 1.7087 l -6.1905,15.8543 -0.056,0.1401 V 70.9717 H 60.4678 V 55.0894 L 60.4118,54.9493 54.2213,39.095 H 55.93 l 5.2941,13.6694 z"
       fill="#ffffff"
       stroke="#010004"
       stroke-width="0.216"
       stroke-miterlimit="22.9256"
       id="path2" />
    <path
       fill-rule="evenodd"
       clip-rule="evenodd"
       d="m 15.0334,1.14006 v 1.59663 7.53501 1.6527 14.4818 c 0,0.9523 -0.168,1.8207 -0.5322,2.661 -0.3641,0.8404 -0.8403,1.5687 -1.4566,2.1569 -0.6162,0.6162 -1.3165,1.0924 -2.1568,1.4566 -0.8124,0.3641 -1.70871,0.5322 -2.63308,0.5322 -0.95238,0 -1.82073,-0.1681 -2.66106,-0.5322 C 4.75332,32.3165 4.02503,31.8403 3.43679,31.2241 2.82055,30.6078 2.34436,29.8795 1.98021,29.0672 1.61607,28.2269 1.448,27.3585 1.448,26.4062 v -5.0421 h 1.56863 v 5.0421 c 0,0.7283 0.14005,1.4005 0.42016,2.0448 0.28012,0.6442 0.67227,1.2045 1.12045,1.6807 0.47619,0.4761 1.03642,0.8403 1.68068,1.1204 0.64425,0.2801 1.31652,0.4202 2.04481,0.4202 0.72829,0 1.40056,-0.1401 2.01677,-0.4202 0.6163,-0.2801 1.1765,-0.6723 1.6527,-1.1204 0.4762,-0.4762 0.8403,-1.0365 1.1204,-1.6807 0.2802,-0.6443 0.4202,-1.3165 0.4202,-2.0448 V 11.8964 10.2437 2.68067 H 5.00542 V 1.11204 h 8.48738 1.5406 z m 18.4034,0 v 13.58544 0.8123 10.8403 c 0,0.9524 -0.1681,1.8208 -0.5322,2.6611 -0.3642,0.8403 -0.8404,1.5686 -1.4566,2.1569 -0.6163,0.6162 -1.3165,1.0924 -2.1569,1.4566 -0.8123,0.3641 -1.7087,0.5322 -2.633,0.5322 -0.9244,0 -1.8207,-0.1681 -2.6611,-0.5322 -0.8403,-0.3642 -1.5686,-0.8404 -2.1568,-1.4566 -0.6163,-0.6163 -1.0925,-1.3446 -1.4566,-2.1569 -0.3642,-0.8403 -0.5322,-1.7087 -0.5322,-2.6611 V 15.5378 14.7255 1.14006 H 21.42 v 13.58544 0.8123 10.8403 c 0,0.7283 0.14,1.4006 0.4202,2.0449 0.2801,0.6442 0.6722,1.2044 1.1204,1.6806 0.4762,0.4762 1.0364,0.8404 1.6807,1.1205 0.6442,0.2801 1.3165,0.4202 2.0448,0.4202 0.7283,0 1.4006,-0.1401 2.0168,-0.4202 0.6162,-0.2801 1.1765,-0.6723 1.6527,-1.1205 0.4761,-0.4762 0.8403,-1.0364 1.1204,-1.6806 0.2801,-0.6443 0.4202,-1.3166 0.4202,-2.0449 V 15.5378 14.7255 1.14006 Z M 45.3696,16.1821 c 0.7843,0.6162 1.5686,1.2885 2.3249,1.9608 0.7843,0.6722 1.4566,1.4285 2.0728,2.2128 0.6163,0.8124 1.1205,1.7087 1.4846,2.6891 0.3642,0.9804 0.5602,2.1009 0.5602,3.3894 0,0.9524 -0.168,1.8207 -0.5322,2.661 -0.3641,0.8404 -0.8403,1.5687 -1.4566,2.1849 -0.6162,0.6163 -1.3165,1.0924 -2.1568,1.4566 -0.8123,0.3641 -1.7087,0.5322 -2.6331,0.5322 -0.9524,0 -1.8207,-0.1681 -2.661,-0.5322 -0.8404,-0.3642 -1.5687,-0.8403 -2.1569,-1.4566 -0.6162,-0.6162 -1.0924,-1.3445 -1.4566,-2.1569 -0.3641,-0.8403 -0.5322,-1.7086 -0.5322,-2.661 h 1.5686 c 0,0.7283 0.1401,1.4005 0.4202,2.0448 0.2801,0.6443 0.6723,1.2045 1.1204,1.6807 0.4762,0.4762 1.0365,0.8403 1.6807,1.1204 0.6443,0.2801 1.3165,0.4202 2.0448,0.4202 0.7283,0 1.4006,-0.1401 2.0168,-0.4202 0.6163,-0.2801 1.1765,-0.6722 1.6527,-1.1204 0.4762,-0.4762 0.8403,-1.0364 1.1205,-1.6807 0.2801,-0.6443 0.4201,-1.3165 0.4201,-2.0448 0,-1.0644 -0.168,-2.0168 -0.5042,-2.8852 C 49.4312,22.7367 48.983,21.9524 48.4508,21.2521 47.8906,20.5518 47.2743,19.8795 46.574,19.2633 45.8738,18.6471 45.1455,18.0308 44.3892,17.4426 43.6329,16.8543 42.8766,16.2381 42.1483,15.5658 41.42,14.9216 40.7477,14.2213 40.1595,13.465 39.5712,12.7087 39.0951,11.8683 38.7309,10.972 38.3668,10.0476 38.1987,9.0112 38.1987,7.80672 c 0,-0.95238 0.1681,-1.82073 0.5322,-2.66106 C 39.0951,4.30532 39.5712,3.57703 40.1875,2.98879 40.8037,2.37255 41.532,1.89636 42.3443,1.53221 43.1847,1.16807 44.053,1 45.0054,1 c 0.9524,0 1.8207,0.16807 2.6331,0.53221 0.8123,0.36415 1.5406,0.84034 2.1568,1.42857 0.6163,0.61625 1.0925,1.31653 1.4566,2.15687 0.3642,0.84033 0.5322,1.70868 0.5322,2.66106 h -1.5126 c 0,-0.72829 -0.14,-1.40056 -0.4201,-2.01681 C 49.5712,5.14566 49.1791,4.58543 48.7309,4.10924 48.2547,3.63305 47.7225,3.26891 47.0782,2.98879 46.462,2.70868 45.7617,2.56863 45.0614,2.56863 c -0.7283,0 -1.4005,0.14005 -2.0448,0.42016 -0.6442,0.28012 -1.2045,0.67227 -1.6807,1.12045 -0.4761,0.47619 -0.8403,1.03642 -1.1204,1.65266 -0.2801,0.61625 -0.4202,1.31653 -0.4202,2.01681 0,1.0084 0.1681,1.90476 0.4762,2.66109 0.3081,0.7843 0.7283,1.4846 1.2605,2.1568 0.5322,0.6723 1.1205,1.2886 1.7927,1.8768 0.6163,0.5602 1.3166,1.1204 2.0449,1.7087 z M 68.5348,1.14006 V 2.70868 H 62.1763 V 33.0448 H 60.6077 V 2.70868 H 54.2491 V 1.14006 h 6.3586 1.5686 z"
       fill="#ffffff"
       stroke="#010004"
       stroke-width="0.216"
       stroke-miterlimit="22.9256"
       id="path4" />
  </g>
</svg>

<svg width="69" height="72" viewBox="0 0 69 72" fill="none" xmlns="http://www.w3.org/2000/svg">
<path fill-rule="evenodd" clip-rule="evenodd" d="M13.437 40.6356H2.56863V52.7084H11.4762V54.277H2.56863V70.9717H1V39.095H2.56863H13.409V40.6356H13.437ZM34.3333 39.095H35.93V70.9717H34.3613V43.5207L26.4902 65.1734L18.563 43.5207V70.9717H16.9944V39.095H18.591L26.4622 60.6076L34.3333 39.095ZM42.2605 69.4311H52.3445V70.9997H42.2605H40.6919V39.095H42.2605V69.4311ZM66.5742 39.095H68.2829L62.0924 54.9493L62.0364 55.0894V70.9717H60.4678V55.0894L60.4118 54.9493L54.2213 39.095H55.93L61.2241 52.7644L66.5742 39.095Z" fill="white" stroke="#010004" stroke-width="0.216" stroke-miterlimit="22.9256"/>
<path fill-rule="evenodd" clip-rule="evenodd" d="M15.0334 1.14006V2.73669V10.2717V11.9244V26.4062C15.0334 27.3585 14.8654 28.2269 14.5012 29.0672C14.1371 29.9076 13.6609 30.6359 13.0446 31.2241C12.4284 31.8403 11.7281 32.3165 10.8878 32.6807C10.0754 33.0448 9.17909 33.2129 8.25472 33.2129C7.30234 33.2129 6.43399 33.0448 5.59366 32.6807C4.75332 32.3165 4.02503 31.8403 3.43679 31.2241C2.82055 30.6078 2.34436 29.8795 1.98021 29.0672C1.61607 28.2269 1.448 27.3585 1.448 26.4062V21.3641H3.01663V26.4062C3.01663 27.1345 3.15668 27.8067 3.43679 28.451C3.71691 29.0952 4.10906 29.6555 4.55724 30.1317C5.03343 30.6078 5.59366 30.972 6.23792 31.2521C6.88217 31.5322 7.55444 31.6723 8.28273 31.6723C9.01102 31.6723 9.68329 31.5322 10.2995 31.2521C10.9158 30.972 11.476 30.5798 11.9522 30.1317C12.4284 29.6555 12.7925 29.0952 13.0726 28.451C13.3528 27.8067 13.4928 27.1345 13.4928 26.4062V11.8964V10.2437V2.68067H5.00542V1.11204H13.4928H15.0334V1.14006ZM33.4368 1.14006V14.7255V15.5378V26.3781C33.4368 27.3305 33.2687 28.1989 32.9046 29.0392C32.5404 29.8795 32.0642 30.6078 31.448 31.1961C30.8317 31.8123 30.1315 32.2885 29.2911 32.6527C28.4788 33.0168 27.5824 33.1849 26.6581 33.1849C25.7337 33.1849 24.8374 33.0168 23.997 32.6527C23.1567 32.2885 22.4284 31.8123 21.8402 31.1961C21.2239 30.5798 20.7477 29.8515 20.3836 29.0392C20.0194 28.1989 19.8514 27.3305 19.8514 26.3781V15.5378V14.7255V1.14006H21.42V14.7255V15.5378V26.3781C21.42 27.1064 21.56 27.7787 21.8402 28.423C22.1203 29.0672 22.5124 29.6274 22.9606 30.1036C23.4368 30.5798 23.997 30.944 24.6413 31.2241C25.2855 31.5042 25.9578 31.6443 26.6861 31.6443C27.4144 31.6443 28.0867 31.5042 28.7029 31.2241C29.3191 30.944 29.8794 30.5518 30.3556 30.1036C30.8317 29.6274 31.1959 29.0672 31.476 28.423C31.7561 27.7787 31.8962 27.1064 31.8962 26.3781V15.5378V14.7255V1.14006H33.4368ZM45.3696 16.1821C46.1539 16.7983 46.9382 17.4706 47.6945 18.1429C48.4788 18.8151 49.1511 19.5714 49.7673 20.3557C50.3836 21.1681 50.8878 22.0644 51.2519 23.0448C51.6161 24.0252 51.8121 25.1457 51.8121 26.4342C51.8121 27.3866 51.6441 28.2549 51.2799 29.0952C50.9158 29.9356 50.4396 30.6639 49.8233 31.2801C49.2071 31.8964 48.5068 32.3725 47.6665 32.7367C46.8542 33.1008 45.9578 33.2689 45.0334 33.2689C44.081 33.2689 43.2127 33.1008 42.3724 32.7367C41.532 32.3725 40.8037 31.8964 40.2155 31.2801C39.5993 30.6639 39.1231 29.9356 38.7589 29.1232C38.3948 28.2829 38.2267 27.4146 38.2267 26.4622H39.7953C39.7953 27.1905 39.9354 27.8627 40.2155 28.507C40.4956 29.1513 40.8878 29.7115 41.3359 30.1877C41.8121 30.6639 42.3724 31.028 43.0166 31.3081C43.6609 31.5882 44.3331 31.7283 45.0614 31.7283C45.7897 31.7283 46.462 31.5882 47.0782 31.3081C47.6945 31.028 48.2547 30.6359 48.7309 30.1877C49.2071 29.7115 49.5712 29.1513 49.8514 28.507C50.1315 27.8627 50.2715 27.1905 50.2715 26.4622C50.2715 25.3978 50.1035 24.4454 49.7673 23.577C49.4312 22.7367 48.983 21.9524 48.4508 21.2521C47.8906 20.5518 47.2743 19.8795 46.574 19.2633C45.8738 18.6471 45.1455 18.0308 44.3892 17.4426C43.6329 16.8543 42.8766 16.2381 42.1483 15.5658C41.42 14.9216 40.7477 14.2213 40.1595 13.465C39.5712 12.7087 39.0951 11.8683 38.7309 10.972C38.3668 10.0476 38.1987 9.0112 38.1987 7.80672C38.1987 6.85434 38.3668 5.98599 38.7309 5.14566C39.0951 4.30532 39.5712 3.57703 40.1875 2.98879C40.8037 2.37255 41.532 1.89636 42.3443 1.53221C43.1847 1.16807 44.053 1 45.0054 1C45.9578 1 46.8261 1.16807 47.6385 1.53221C48.4508 1.89636 49.1791 2.37255 49.7953 2.96078C50.4116 3.57703 50.8878 4.27731 51.2519 5.11765C51.6161 5.95798 51.7841 6.82633 51.7841 7.77871H50.2715C50.2715 7.05042 50.1315 6.37815 49.8514 5.7619C49.5712 5.14566 49.1791 4.58543 48.7309 4.10924C48.2547 3.63305 47.7225 3.26891 47.0782 2.98879C46.462 2.70868 45.7617 2.56863 45.0614 2.56863C44.3331 2.56863 43.6609 2.70868 43.0166 2.98879C42.3724 3.26891 41.8121 3.66106 41.3359 4.10924C40.8598 4.58543 40.4956 5.14566 40.2155 5.7619C39.9354 6.37815 39.7953 7.07843 39.7953 7.77871C39.7953 8.78711 39.9634 9.68347 40.2715 10.4398C40.5796 11.2241 40.9998 11.9244 41.532 12.5966C42.0642 13.2689 42.6525 13.8852 43.3247 14.4734C43.941 15.0336 44.6413 15.5938 45.3696 16.1821ZM68.5348 1.14006V2.70868H62.1763V33.0448H60.6077V2.70868H54.2491V1.14006H60.6077H62.1763H68.5348Z" fill="white" stroke="#010004" stroke-width="0.216" stroke-miterlimit="22.9256"/>
</svg>
